!!!COM: Scriabin, Alexander
!!!OTL: Movement 4
!!!OPR: Sonata No. 1
!!!OPS: 6
!!!ONM: 4
!!!ODT: 1893
!!!AGN: Sonata movement
**kern	**kern
*staff2	*staff1
*Ipiano	*Ipiano
*clefF4	*clefF4
*k[b-e-a-d-]	*k[b-e-a-d-]
*f:	*f:
*M4/4	*M4/4
*met(c)	*met(c)
=1	=1
*	*^
4FFF 4FF	2rc	2rEE
4C	.	.
4FFF 4FF	4rc	4rEE
4C	8.FL	4F
.	16GJk	.
=2	=2	=2
4FFF 4FF	2G	[4C [4F
4C 4c	.	12CL] 12F]
.	.	12C 12F
.	.	12CJ 12F
4FFF 4FF	8A-L	4C 4F
.	[8gJ	.
4C	12gL]	4A-
.	12.f	.
.	24e-Jk	.
=3	=3	=3
*^	*	*^
8rc	4FFF	4e-	8rEE	4r
[8FF	.	.	[8A-	.
12FFL]	4rEE	2d-	12A-L]	4D-\
12.GG	.	.	12.G	.
24AA-Jk	.	.	24FJk	.
4AA-	4FFF	.	4F	4D-\
8.AA-L	4rEE	4c	4F	4D-\
16AA-Jk	.	.	.	.
*	*	*	*v	*v
=4	=4	=4	=4
8AA-L	4FFF	4rc	4rEE
8GGJ	.	.	.
8AA-L	4rEE	12cL	4D-
.	.	12F	.
8GGJ	.	.	.
.	.	12GJ	.
8AA-L	4FFF	4.c	4D- 4F
8GGJ	.	.	.
8AA-L	4rEE	.	4F
8GGJ	.	8Bn	.
*v	*v	*	*
=5	=5	=5
4FFF 4FF	8.fL	2F 2A-
.	16cJk	.
4C	4c	.
4FFF 4FF	4rc	2BBn
4D-	8.FL	.
.	16GJk	.
=6	=6	=6
4FFF 4FF	2G	[4C [4F
4C 4c	.	12CL] 12F]
.	.	12C 12F
.	.	12CJ 12F
4FFF 4FF	8A-L	4C 4F
.	[8gJ	.
4C	12gL]	4A-
.	12.f	.
.	24e-Jk	.
=7	=7	=7
*^	*	*^
8rc	4FFF 4FF	4e-	8A-	4r
[8FF	.	.	[8A-	.
12FFL]	4rEE	2d-	12A-L]	4D-\
12.GG	.	.	12.G	.
24AA-Jk	.	.	24FJk	.
4AA-	4FFF	.	4F	4D-\
8.AA-L	4rEE	4c	4F	4D-\
16AA-Jk	.	.	.	.
*	*	*	*v	*v
=8	=8	=8	=8
8AA-L	4FFF	4rc	4rEE
8GGJ	.	.	.
8AA-L	4rEE	12cL	4D-
.	.	12F	.
8GGJ	.	.	.
.	.	12GJ	.
8AA-L	4FFF	4.c	4D- 4F
8GGJ	.	.	.
8AA-L	4rEE	.	4F
8GGJ	.	8Bn	.
*v	*v	*	*
=9	=9	=9
4FFF 4FF	8.e-L	2E- 2A-
.	16cJk	.
4C	4c	.
4FFF 4FF	4rc	4rEE
4C	8.A-L	4E-
.	16A-Jk	.
=10	=10	=10
4FFF 4FF	12A-L	4E-
.	12B-	.
.	12BnJ	.
4C	12cL	4E- 4A-
.	12d-	.
.	12dnJ	.
4FFF 4FF	4e-	4E- 4c
4G-X	8.e-L	4E- 4B-X
.	16e-Jk	.
=11	=11	=11
4FFF 4FF	12e-L	4E- [4An
.	12dn	.
.	12e-J	.
4F	2d-X 2f	12AL]
.	.	12A
.	.	12AJ
4FFF 4FF	.	4A
*	*clefG2	*
4E-	8.B-L	4F
.	16B-Jk	.
=12	=12	=12
4FFF 4FF	12B-L	4F
.	12c	.
.	[12d-J	.
4D-	12d-L]	4F 4B-
.	12e-	.
.	[12fJ	.
4FFF 4FF	8fL]	4F 4B- 4d-
.	[8b-J	.
4F 4f	12b-L]	4d-
.	12.an	.
.	24a-XJk	.
=13	=13	=13
*	*	*^
4FFF 4FF	4a-	4d-	4r
4C 4c	2a-	4e-	12e-\L
.	.	.	12A-\
.	.	.	12A-\J
4FF 4C 4B-	.	4en	4A-\
4C 4B-	8.FL 8.f	4c	4r
.	16GJk 16g	.	.
*	*	*v	*v
=14	=14	=14
4FFF 4FF	2G 2g	[4c [4f
[8qC/	.	.
4C] 4cc	.	12cL] 12f]
.	.	12c 12f
.	.	12cJ 12f
8FFFL 8FF	8A-L 8a-	4c 4f
8CJ 8c	[8gJ [8gg	.
4A- 4c 4a-	12gL] 12gg]	4cc
.	12.f 12.ff	.
.	24e-XJk 24ee-	.
*	*v	*v
=15	=15
*^	*
8rc	4FFF 4FF	4e- 4a- 4ee-
[8FF [8F	.	.
12FFL] 12F]	4rEE	2d- 2a- 2dd-
12.GG 12.G	.	.
24AA-Jk 24A-	.	.
4AA- 4A-	4rEE	.
8.AA-L 8.A-	4D-	4c 4f 4cc
16AA-Jk 16A-	.	.
=16	=16	=16
8AA-L 8A-	4FFF 4FF	4r
8GGJ 8G	.	.
8AA-L 8A-	4D-	2c 2f 2cc
8GGJ 8G	.	.
8AA-L 8A-	4FFF 4FF	.
8GGJ 8G	.	.
8AA-L 8A-	4D-	4B- 4en 4b-
8GGJ 8G	.	.
=17	=17	=17
8AA-L 8A-	4FFF 4FF	4r
8FFJ 8F	.	.
4FF 4F	4rEE	4A- 4f 4a-
8AAA-L	4rEE	2r
8FFFJ	.	.
4FFF	4rEE	.
*	*	*clefF4
=18	=18	=18
8AA-L	4FFF	4r
8GGJ	.	.
8AA-L	4rEE	2D- 2F 2c
8GGJ	.	.
8AA-L	4FFF	.
8GGJ	.	.
8AA-L	4rEE	4D- 4En 4B-
8GGJ	.	.
*v	*v	*
=19	=19
8AA-L	4r
8FFJ	.
4FF	4C 4F 4A-
8AAA-L	2r
8FFFJ	.
4FFF	.
*	*clefG2
=20	=20
*M2/2	*M2/2
*met(c|)	*met(c|)
2D- 2A-	2d- 2f
2D- 2A-	2d- 2f
=21	=21
*^	*
2D- 2A- 2d-	2rEE	2c 2f 2a-
2D- 2d-	2A-	2c 2f 2a-
=22	=22	=22
2D- 2d-	2A-	2B- 2en 2b-
2D- 2d-	2G	2B- 2e 2b-
=23	=23	=23
2D- 2d-	2G	2en 2b- 2dd-
2D- 2d-	2G-X	2e 2b- 2dd-
*v	*v	*
=24	=24
2D- 2F 2d-	2f 2b- 2ff
2D- 2F 2d-	2f 2b- 2ff
=25	=25
2C 2F 2c	2a- 2ee- 2aa-
2C 2F 2c	2a- 2ee- 2aa-
=26	=26
2BB- 2F 2B-	2dd- 2aa- 2ddd-
2BB- 2F 2B-	2dd- 2aa- 2ddd-
=27	=27
*^	*
.	[8qAAA-\ [8qAA-	.
2F 2A- 2c 2f	1AAA-] 1AA-]	2ff 2ccc 2fff
2F 2A- 2c 2f	.	2ff 2ccc 2fff
*v	*v	*
=28	=28
2E- 2B-	2e- 2g-X
2E- 2B-	2e- 2g-
=29	=29
2E- 2B- 2e-	2d- 2g-X 2b-
2E- 2B- 2e-	2d- 2g- 2b-
=30	=30
2E- 2A- 2e-	2c-X 2g-X 2cc-X
2E- 2A- 2e-	2c- 2g- 2cc-
=31	=31
2E- 2An 2e-	2g-X 2cc-X 2ee-
2E- 2A 2e-	2g- 2cc- 2ee-
=32	=32
2E- 2B- 2e-	2g-X 2b- 2ee- 2gg-X
2E- 2B- 2e-	2g- 2b- 2ee- 2gg-
=33	=33
2En 2B- 2d-	2g-X 2b- 2dd- 2gg-X
2E 2B- 2d-	2g- 2b- 2dd- 2gg-
=34	=34
2BB- 2F 2d-	2f 2b- 2ff
2BB- 2F 2d-	2f 2b- 2ff
=35	=35
2BB- 2F 2d-	2f 2b- 2dd-
2BB- 2F 2d-	2f 2b- 2dd-
=36	=36
1r	1r
=37	=37
2C-X 2F	2An 2e- 2an
2C- 2F	2A 2e- 2a
=38	=38
2EE- 2BB- 2G-X	2B- 2e- 2b-
2EE- 2BB- 2G-	2B- 2e- 2b-
=39	=39
2EE- 2BB- 2G-X	2B- 2e- 2g-X
2EE- 2BB- 2G-	2B- 2e- 2g-
=40	=40
*M4/4	*M4/4
*met(c)	*met(c)
*	*^
2r	4raa	2rc
.	[4b--	.
2E-	6b--]	2B-- 2d-
.	6a-	.
.	6g-X	.
=41	=41	=41
*^	*	*
1G-X	2.BB--	4f	1c
.	.	2dn	.
.	4AA-	4e-	.
*v	*v	*	*
*	*v	*v
=42	=42
*M2/2	*M2/2
*met(c|)	*met(c|)
2D- 2A-	2d-X 2f
2D- 2A-	2d- 2f
=43	=43
*^	*
2D- 2A- 2d-	2rEE	2c 2f 2a-
2D- 2d-	2A-	2c 2f 2a-
=44	=44	=44
2D- 2d-	2A-	2B- 2en 2b-
2D- 2d-	2G	2B- 2e 2b-
=45	=45	=45
2D- 2d-	2G	2en 2b- 2dd-
2D- 2d-	2G-X	2e 2b- 2dd-
=46	=46	=46
2D- 2d-	2F	2f 2b- 2ff
2D- 2d-	2F	2f 2b- 2ff
=47	=47	=47
2D- 2d-	2Gn	2f 2bn 2ff
2D- 2d-	2G	2f 2b 2ff
=48	=48	=48
[8qC/	.	.
2C] 2Bn 2d- 2f	2A-	2a- 2dd- 2ff 2aa-
2B 2d- 2f	2A-	2a- 2dd- 2ff 2aa-
=49	=49	=49
4G	1C	2.en 2.b-X 2.een
2d-	.	.
4c	.	4r
*v	*v	*
*	*clefF4
=50	=50
*M4/4	*M4/4
*met(c)	*met(c)
*	*^
4FFF 4FF	2rc	2rEE
4C	.	.
4FFF 4FF	4rc	4rEE
4C	8.FL	4F
.	16GJk	.
=51	=51	=51
4FFF 4FF	2G	[4C [4F
4C 4c	.	12CL] 12F]
.	.	12C 12F
.	.	12CJ 12F
4FFF 4FF	8A-L	4C 4F
.	[8gJ	.
4C	12gL]	4A-
.	12.f	.
.	24e-Jk	.
=52	=52	=52
*^	*	*^
8rc	4FFF 4FF	4e-	8A-	4r
[8FF	.	.	[8A-	.
12FFL]	4rEE	2d-	12A-L]	4D-\
12.GG	.	.	12.G	.
24AA-Jk	.	.	24FJk	.
4AA-	4FFF	.	4F	4D-\
8.AA-L	4rEE	4c	4F	4D-\
16AA-Jk	.	.	.	.
*	*	*	*v	*v
=53	=53	=53	=53
8AA-L	4FFF	4rc	4rEE
8GGJ	.	.	.
8AA-L	4rEE	12cL	4D-
.	.	12F	.
8GGJ	.	.	.
.	.	12GJ	.
8AA-L	4FFF	4.c	4D- 4F
8GGJ	.	.	.
8AA-L	4rEE	.	4F
8GGJ	.	8Bn	.
*v	*v	*	*
=54	=54	=54
4FFF 4FF	8.fL	2F 2A-
.	16cJk	.
4C	4c	.
4FFF 4FF	4rc	2BBn
4D-	8.FL	.
.	16GJk	.
=55	=55	=55
4FFF 4FF	2G	[4C [4F
4C 4c	.	12CL] 12F]
.	.	12C 12F
.	.	12CJ 12F
4FFF 4FF	8A-L	4C 4F
.	[8gJ	.
4C	12gL]	4A-
.	12.f	.
.	24e-Jk	.
=56	=56	=56
*^	*	*^
8rc	4FFF 4FF	4e-	8A-	4r
[8FF	.	.	[8A-	.
12FFL]	4rEE	2d-	12A-L]	4D-\
12.GG	.	.	12.G	.
24AA-Jk	.	.	24FJk	.
4AA-	4FFF	.	4F	4D-\
8.AA-L	4rEE	4c	4F	4D-\
16AA-Jk	.	.	.	.
*	*	*	*v	*v
=57	=57	=57	=57
8AA-L	4FFF	4rc	4rEE
8GGJ	.	.	.
8AA-L	4rEE	12cL	4D-
.	.	12F	.
8GGJ	.	.	.
.	.	12GJ	.
8AA-L	4FFF	4.c	4D- 4F
8GGJ	.	.	.
8AA-L	4rEE	.	4F
8GGJ	.	8Bn	.
*v	*v	*	*
=58	=58	=58
4FFF 4FF	8.e-L	2E- 2A-
.	16cJk	.
4C	4c	.
4FFF 4FF	4rc	4rEE
4C	8.A-L	4E-
.	16A-Jk	.
=59	=59	=59
4FFF 4FF	12A-L	4E-
.	12B-	.
.	12BnJ	.
4C	12cL	4E- 4A-
.	12d-	.
.	12dnJ	.
4FFF 4FF	4e-	4E- 4c
4G-X	8.e-L	4E- 4B-X
.	16e-Jk	.
=60	=60	=60
4FFF 4FF	12e-L	4E- [4An
.	12dn	.
.	12e-J	.
4F	2d-X 2f	12AL]
.	.	12A
.	.	12AJ
4FFF 4FF	.	4A
*	*clefG2	*
4E-	8.B-L	4F
.	16B-Jk	.
=61	=61	=61
4FFF 4FF	12B-L	4F
.	12c	.
.	[12d-J	.
4D-	12d-L]	4F 4B-
.	12e-	.
.	[12fJ	.
4FFF 4FF	8fL]	4F 4B- 4d-
.	[8b-J	.
4F 4f	12b-L]	4d-
.	12.an	.
.	24a-XJk	.
=62	=62	=62
*	*	*^
4FFF 4FF	4a-	4d-	4r
4C 4c	2a-	4e-	12e-\L
.	.	.	12A-\
.	.	.	12A-\J
4FF 4C 4B-	.	4en	4A-\
4C 4B-	8.FL 8.f	4c	4r
.	16GJk 16g	.	.
*	*	*v	*v
=63	=63	=63
4FFF 4FF	2G 2g	[4c [4f
[8qC/	.	.
4C] 4cc	.	12cL] 12f]
.	.	12c 12f
.	.	12cJ 12f
8FFFL 8FF	8A-L 8a-	4c 4f
8CJ 8c	[8gJ [8gg	.
4A- 4c 4a-	12gL] 12gg]	4cc
.	12.f 12.ff	.
.	24e-XJk 24ee-	.
*	*v	*v
=64	=64
*^	*
8rc	4FFF 4FF	4e- 4a- 4ee-
[8FF [8F	.	.
12FFL] 12F]	4rEE	2d- 2a- 2dd-
12.GG 12.G	.	.
24AA-Jk 24A-	.	.
4AA- 4A-	4FFF 4FF	.
8.AA-L 8.A-	4D-	4c 4f 4cc
16AA-Jk 16A-	.	.
=65	=65	=65
8AA-L 8A-	4FFF 4FF	4r
8GGJ 8G	.	.
8AA-L 8A-	4D-	2c 2f 2cc
8GGJ 8G	.	.
8AA-L 8A-	4FFF 4FF	.
8GGJ 8G	.	.
8AA-L 8A-	4D-	4B- 4en 4b-
8GGJ 8G	.	.
=66	=66	=66
8AA-L 8A-	4FFF 4FF	4r
8FFJ 8F	.	.
4FF 4F	4rEE	4A- 4f 4a-
8AA-L	4rEE	2r
8FFJ	.	.
4FF	4rEE	.
*	*	*clefF4
=67	=67	=67
8AA-L	4FFF	4r
8GGJ	.	.
8AA-L	4rEE	2D- 2F 2c
8GGJ	.	.
8AA-L	4FFF	.
8GGJ	.	.
8AA-L	4rEE	4D- 4En 4B-
8GGJ	.	.
=68	=68	=68
8AA-L	4FFF	4r
8FFJ	.	.
4FF	4rEE	4C 4F 4A-
8AAA-L	4rEE	2r
8FFFJ	.	.
4FFF	4rEE	.
=69	=69	=69
8AAA-L	4FFF	4r
8GGGJ	.	.
8AAA-L	4rEE	2DD- 2FF 2C
8GGGJ	.	.
8AAA-L	4FFF	.
8GGGJ	.	.
8AAA-L	4rEE	4DD- 4FF 4BBn
8GGGJ	.	.
=70	=70	=70
8AAA-L	4FFF	4r
8GGGJ	.	.
8AAA-L	4rEE	2DD- 2FF 2C
8GGGJ	.	.
8AAA-L	4FFF	.
8GGGJ	.	.
8AAA-L	4rEE	4DD- 4FF 4BBn
8GGGJ	.	.
*v	*v	*
*	*clefG2
=71	=71
8AA-L 8C 8A-	8a-L 8cc 8aa-
8FFJ 8C 8F	8fJ 8cc 8ff
2.FF 2.C 2.F	2.f 2.cc 2.ff
==	==
*-	*-
!!!system-decoration: {(*)}
!!!ENC: Bryan Jacob Bell
!!!END: November 2021 to April 2022
!!!PED: Günter Philipp
!!!PTL: Ausgewählte Klavierwerke (Edition Peters)
